cheesecake-frontend/public/assets/vector.svg

<svg width="70" height="70" viewBox="0 0 70 70" fill="none" xmlns="http://www.w3.org/2000/svg">
<path id="Vector" d="M41.4926 51.5164L35.0524 45.1298C32.0925 42.1946 30.6124 40.7269 28.9084 40.1764C27.4095 39.6919 25.7963 39.6919 24.2971 40.1764C22.5932 40.7269 21.1131 42.1946 18.1531 45.1298L3.15724 60.2332M41.4926 51.5164L42.7725 50.2466C45.795 47.2496 47.3059 45.7511 49.0399 45.2044C50.5646 44.7233 52.203 44.742 53.7165 45.258C55.437 45.8449 56.9134 47.3775 59.8657 50.4431L63 53.6254M41.4926 51.5164L56.325 66.6105M3.15724 60.2332C3.2724 61.2097 3.47186 61.9766 3.81746 62.655C4.53649 64.0661 5.68388 65.2136 7.09508 65.9325C8.6994 66.75 10.7996 66.75 15 66.75H51C53.3299 66.75 55.0136 66.75 56.325 66.6105M3.15724 60.2332C3 58.8997 3 57.1748 3 54.75V18.75C3 14.5496 3 12.4494 3.81746 10.8451C4.53649 9.43384 5.68388 8.28649 7.09508 7.56746C8.6994 6.75 10.7996 6.75 15 6.75H29.25M56.325 66.6105C57.3776 66.4984 58.1906 66.2966 58.905 65.9325C60.3161 65.2136 61.4636 64.0661 62.1825 62.655C63 61.0508 63 58.9504 63 54.75V40.5M55.5 25.5V14.25M55.5 14.25V3M55.5 14.25H66.75M55.5 14.25H44.25" stroke="black" stroke-opacity="0.3" stroke-width="5" stroke-linecap="round" stroke-linejoin="round"/>
</svg>

<?xml version="1.0" encoding="utf-8"?>
<!-- Generator: Adobe Illustrator 28.2.0, SVG Export Plug-In . SVG Version: 6.00 Build 0)  -->
<svg version="1.1" id="Layer_1" xmlns="http://www.w3.org/2000/svg" xmlns:xlink="http://www.w3.org/1999/xlink" x="0px" y="0px"
	 viewBox="0 0 70 70" style="enable-background:new 0 0 70 70;" xml:space="preserve">
<style type="text/css">
	.st0{fill:none;stroke:#FFFFFF;stroke-width:5;stroke-linecap:round;stroke-linejoin:round;stroke-opacity:0.3;}
</style>
<path id="Vector" class="st0" d="M41.5,51.5l-6.4-6.4c-3-2.9-4.4-4.4-6.1-5c-1.5-0.5-3.1-0.5-4.6,0c-1.7,0.6-3.2,2-6.1,5l-15,15.1
	 M41.5,51.5l1.3-1.3c3-3,4.5-4.5,6.3-5c1.5-0.5,3.2-0.5,4.7,0.1c1.7,0.6,3.2,2.1,6.1,5.2l3.1,3.2 M41.5,51.5l14.8,15.1 M3.2,60.2
	c0.1,1,0.3,1.7,0.7,2.4c0.7,1.4,1.9,2.6,3.3,3.3c1.6,0.8,3.7,0.8,7.9,0.8h36c2.3,0,4,0,5.3-0.1 M3.2,60.2C3,58.9,3,57.2,3,54.8v-36
	c0-4.2,0-6.3,0.8-7.9c0.7-1.4,1.9-2.6,3.3-3.3c1.6-0.8,3.7-0.8,7.9-0.8h14.2 M56.3,66.6c1.1-0.1,1.9-0.3,2.6-0.7
	c1.4-0.7,2.6-1.9,3.3-3.3C63,61.1,63,59,63,54.8V40.5 M55.5,25.5V14.2 M55.5,14.2V3 M55.5,14.2h11.2 M55.5,14.2H44.2"/>
</svg>
